X: 471
%
U:~=!turn!
T: Mrs. Garden of Troup
C:Robert Petrie
O:Scotland
B:Keith Norman MacDonald : "The Skye collection of the best reels & strathspeys extant" : 1887
Z:Ralph Palmer
R:Strathspey
M:C
L:1/8
K:F
C | ~F>GF<d c<Fd>F | (E<C)C>F ( E/F/).G/.E/ {/B,}C>E | ~F>GF<d c<FA>f | c>f (a/g/).f.e ~f2 f :|
c | f>ca>c b>ca>c | A>f (b/a/).g/.f/ (e<g)~g>a | ~f>ca>c b>ca>c | (b/a/)(g/f/) (e/f/)(g/e/) ~f2 f>c | ~f>ca>c b>ca>c |
A>f (b/a/)(g/f/) (e<g) Tg(f/e/) | d>Bd<f {AB}c>Ac<f | [1 c>f (a/g/).f/.e/ ~f2 f :| ["last" c>f (a/g/)(f/e/) (g/f/)(e/d/) (c/B/)(A/G/) | H[A,8F8] |]


